svgs/tva_plus.svg

<svg xmlns="http://www.w3.org/2000/svg" width="192" height="192" fill="none" viewBox="0 0 192 192"><path stroke="#000" stroke-linecap="round" stroke-linejoin="round" stroke-miterlimit="6" stroke-width="14" d="m72.2 81.48 14.4 29.02m42.885-29.02 14.4 29.02M100.8 81.877l.127-.127m14.273 28.527.127-.127m-77.827.37V87.48a6 6 0 0 0-6-6H23h29.05"/><path stroke="#000" stroke-linecap="round" stroke-linejoin="round" stroke-miterlimit="6" stroke-width="6" d="M164.3 77.47v17.4-8.72h-8.7H173"/></svg>

<svg width="192" height="192" viewBox="0 0 192 192" fill="none" xmlns="http://www.w3.org/2000/svg"><path d="M72.2 81.48L86.6 110.5M129.485 81.48L143.885 110.5M100.8 81.877L100.927 81.75M115.2 110.277L115.327 110.15M37.5 110.52V87.48C37.5 84.1663 34.8137 81.48 31.5 81.48H23H52.05" stroke="black" stroke-width="14" stroke-miterlimit="6" stroke-linecap="round" stroke-linejoin="round"/><path d="M164.3 77.47V94.87V86.15H155.6H173" stroke="black" stroke-width="6" stroke-miterlimit="6" stroke-linecap="round" stroke-linejoin="round"/></svg>
